X: 23
T:Pigeon on the gate: Katie Howson
M:4/4
L:1/8
R:Hornpipe
O:c>Bc>e d>B G2`
N:Stepdance played quickl
K:C
|c>Bc>A G2 c>e| d>cB>A G2 e>f| g>ec>c' a>fd>B| c>Bc>e d>B G2| c>Bc>A G2
c>e| d>cB>A G2 e>f| g>ec>c' a>fd>B| c2e2c2:||
f/2| g>fg>e c2 g>c'|a>ga>f d3 f| g>fg>e  c3 B| c>Bc>e d>A G2|c>Bc>A G2
c>e| d>cB>A G2 e>f| g>ec>c' a>fd>B| c2e2c2:||
